X:0
T:The Crooked Horn Ewe
G:reel
S:Sharpe MS, late 1790s
M:C|
L:1/8
Q:1/2=100
K:GDor
 DG(GA) FGAF|.D(GGB) cABG|cABG FGAF|D(GGB)  A^FG2:|
.G(gga) fgaf|.d(gga) fagd|fgdf cfAF|D(dd).c A^FG2:|

The later version also introduced a gap at the sixth.  The same
scale is in effect used in this well-known tune, originally a
trade guild march from the Lowlands (the c is barely noticeable):

